mobile/24/svg/bookmark-tray-fill-24.svg

<svg width="24" height="24" viewBox="0 0 24 24" fill="none" xmlns="http://www.w3.org/2000/svg">
<path d="M7.20295 16.763C7.41895 16.921 7.67195 17 7.92595 17C8.15295 17 8.38095 16.936 8.58495 16.808L12 14.649L15.416 16.809C15.846 17.08 16.387 17.062 16.797 16.764C17.207 16.466 17.391 15.955 17.266 15.464L16.2689 11.548L19.377 8.967C19.768 8.643 19.92 8.122 19.763 7.64C19.607 7.157 19.1779 6.824 18.6709 6.791L14.639 6.53L13.144 2.776C12.956 2.304 12.508 2 12 2C11.492 2 11.043 2.304 10.857 2.776L9.36195 6.53L5.32995 6.792C4.82395 6.825 4.39495 7.158 4.23895 7.64C4.08195 8.122 4.23295 8.643 4.62295 8.967L7.73095 11.548L6.73395 15.463C6.60895 15.955 6.79295 16.465 7.20295 16.763Z" fill="black"/>
<path d="M5 19.5V17H3.25V19.5C3.25 20.8802 4.36975 22 5.75 22H18.25C19.6302 22 20.75 20.8802 20.75 19.5V17H19V19.5C19 19.9138 18.6638 20.25 18.25 20.25H5.75C5.33625 20.25 5 19.9138 5 19.5Z" fill="black"/>
</svg>

<svg width="24" height="24" fill="none" xmlns="http://www.w3.org/2000/svg"><path d="M7.203 16.763a1.222 1.222 0 0 0 1.382.045L12 14.649l3.416 2.16c.43.271.971.253 1.381-.045.41-.298.594-.809.469-1.3l-.997-3.916 3.108-2.581c.391-.324.543-.845.386-1.327a1.225 1.225 0 0 0-1.092-.849l-4.032-.261-1.495-3.754A1.224 1.224 0 0 0 12 2a1.22 1.22 0 0 0-1.143.776L9.362 6.53l-4.032.262a1.225 1.225 0 0 0-1.091.848 1.224 1.224 0 0 0 .384 1.327l3.108 2.581-.997 3.915a1.225 1.225 0 0 0 .469 1.3z" fill="#000"/><path d="M5 19.5V17H3.25v2.5a2.5 2.5 0 0 0 2.5 2.5h12.5a2.5 2.5 0 0 0 2.5-2.5V17H19v2.5a.75.75 0 0 1-.75.75H5.75A.75.75 0 0 1 5 19.5z" fill="#000"/></svg>
